!!!SOCIAL_FUNCTION:	songs connected with rare medicines
!!!PDT:	1909
!!!OTL: No_81_Song_of_the_Flying_Feather.krn
!!!REG: Great_Lakes
!!!LANG: Non-Tone
!!!LING_GROUP: Algonquin
**kern	**kern
*staff2	*staff1
=1-	=1-
*clefF4	*clefF4
*k[b-e-a-d-g-]	*k[b-e-a-d-g-]
*M3/4	*M3/4
8GG-/L	4d-\
8GG-/J	.
8GG-/L	4B-\
8GG-/J	.
8GG-/L	8B-\L
8GG-/J	8d-\J
=2||	=2||
*M4/4	*M4/4
1r	8d-\L
.	8B-\
.	8d-\
.	8d-\J
.	8d-\L
.	8d-\J
.	4B-\
=3||	=3||
*M3/4	*M3/4
2.r	4d-\
.	4B-\
.	8B-\L
.	8d-\J
=4||	=4||
*M4/4	*M4/4
1r	8A-\L
.	8A-\
.	8A-\
.	8A-\J
.	8A-\L
.	8A-\J
.	4F\
=5||	=5||
*M3/4	*M3/4
2.r	4A-\
.	4F\
.	8D-\L
.	8D-\J
=6||	=6||
*M4/4	*M4/4
1r	8D-\L
.	8D-\
.	8F\
.	8F\J
.	8F\L
.	8F\J
.	4F\
=7||	=7||
*M2/4	*M2/4
2r	8D-\L
.	8D-\J
.	12D-\L
.	12D-\
.	12D-\J
=8||	=8||
*M3/4	*M3/4
2.r	[4D-\
.	4D-\]
.	8D-\L
.	8B-\J
=9||	=9||
*M4/4	*M4/4
1r	8B-\L
.	8d-\
.	8d-\
.	8d-\J
.	8d-\L
.	8d-\J
.	4B-\
=10||	=10||
*M3/4	*M3/4
2.r	4d-\
.	4B-\
.	8B-\L
.	8d-\J
=11||	=11||
*M4/4	*M4/4
1r	8A-\L
.	8A-\
.	8A-\
.	8A-\J
.	8A-\L
.	8A-\J
.	4F\
=12||	=12||
*M3/4	*M3/4
2.r	4A-\
.	4F\
.	8D-\L
.	8D-\J
=13||	=13||
*M4/4	*M4/4
1r	8D-\L
.	8D-\
.	8F\
.	8F\J
.	8F\L
.	8F\J
.	4F\
=14||	=14||
*M2/4	*M2/4
2r	8D-\L
.	8D-\J
.	12D-\L
.	12D-\
.	12D-\J
=15||	=15||
*M3/4	*M3/4
2.r	2D-\
.	4D-\
==	==
*-	*-
